X:1
T:Title
%%score { ( 1 4 ) | ( 2 3 ) }
L:1/8
M:3/2
K:Ab
V:1 treble nm="Grand Piano"
V:4 treble 
V:2 bass 
V:3 bass 
V:1
 z4 z4[Q:1/4=100] [CA]2 [CE]2 | [Ec]6 [Ec]2 .[Ec]2 [A,EA]2 | [DF]3 G [A,FA]4 F2 E2 | A6 A2 c2 A2 | %4
[M:4/4] B8 |[M:2/4] e2 e2 |[M:6/4] c6 A2 [Af]2 [Ae]2 | c2 B2 B2- B2 [Ec]2 [EA]2 | %8
 BA F2 E2 A2 A2 B2 |[M:4/4] [CA]8 |] %10
V:2
 z4 z4 [A,,A,]2 [A,,A,]2 | [A,,A,]6 [A,,A,]2 z[K:treble] B[K:bass] C,2 | %2
 z2 z E D,4 [D,A,D]2 [C,A,]2 | [F,A,C]6 [F,A,C]2 [E,A,E]2 [E,A,C]2 |[M:4/4] [E,G,E]8 | %5
[M:2/4][K:treble] [A,CE]2 [A,CE]2 |[M:6/4] [A,EA]6[K:bass] [A,CE]2 [D,D]2 [E,C]2 | .A,6 z6 | %8
 [D,A,]2 [D,A,D]2 [E,A,C]2- [E,A,C]2 [A,C]2 [G,D]2 |[M:4/4] [A,,A,]8 |] %10
V:3
 x12 | z4 z4 .[C,A,]4[K:treble][K:bass] | D,4 z4 z4 | x12 |[M:4/4] x8 |[M:2/4][K:treble] x4 | %6
[M:6/4] x6[K:bass] x6 | [E,E]2- [E,G,E]2 [E,G,E]2- [E,G,E]2 [A,,A,]2 [C,A,]2 | z6 z2 E,4 | %9
[M:4/4] x8 |] %10
V:4
 x12 | x12 | A,4 z4 z4 | x12 |[M:4/4] x8 |[M:2/4] x4 |[M:6/4] x12 | x12 | .F6 z6 |[M:4/4] x8 |] %10

